X:1
T:Chicopee, 12.11.12.11
T:Chicopee, 12.11.12.11
T:Henry John Gauntlett (1805-1876)
T:Public Domain Courtesy of the Cyber Hymnal™
C:Henry John Gauntlett (1805-1876)
Z:Public Domain
Z:Courtesy of the Cyber Hymnal™
%%score ( 1 2 ) ( 3 4 )
L:1/8
M:4/4
K:Eb
V:1 treble 
V:2 treble 
V:3 bass 
V:4 bass 
V:1
 [Ge]2 | [Ge]4 [GB]2 [GB]2 | c4 B2 [AB]2 | (c2 B2) [GB]2 [EG]2 |!>(! [DF]4 E2!>)! [EG]2 | %5
!<(! ([DF]2 E2) [Cc]2 [DB]2!<)! | [EB]4 [EA]2 [EG]2 | (G2 F2) [CA]2 [CF]2 | (E4 D2) [EG]2 | %9
 [EG]4 [EF]2 [DB]2 |!>(! [EB]4 [E=A]2!>)! [FA]2 | f2 e2!<(! [Fd]2 [Fc]2 | [Fc]4 [FB]2!<)! [FB]2 | %13
 (B2 e2) [Ad]2 [FA]2 | (G2 [Ac]2) B2 E2 | [EG]4 [DG]2 [DF]2 | E6 |] %17
V:2
 x2 | x8 | (G2 F2) B2 x2 | G4 x4 | x4 E2 x2 | x2 E2 x4 | x8 | C4 x4 | B,6 x2 | x8 | x8 | F4 x4 | %12
 x8 | B4 x4 | G2 B2 E2 x2 | x8 | E6 |] %17
V:3
 [E,B,]2 | [E,B,]4 [E,B,]2 [E,B,]2 | (B,2 A,2) [E,G,]2 [E,D]2 | [E,E]4 [E,E]2 [E,B,]2 | %4
 [B,,A,]4 [E,G,]2 [E,B,]2 | (A,2 G,2) [E,A,]2 [E,A,]2 | [E,G,]4 [E,C]2 [E,B,]2 | %7
 [A,,A,]4 [A,,A,]2 [A,,A,]2 | (G,4 F,2) [B,,E,]2 | [A,,C]4 [A,,C]2 [B,,F,]2 | %10
 [C,F,]4 [C,F,]2 [C,C]2 | [C,=A,]4 [F,A,]2 [E,A,]2 | [D,=A,]4 [D,B,]2 [D,_A,]2 | %13
 (G,2 B,2) [E,C]2 [E,D]2 | ([E,E]2 DC) [G,B,]2 [A,C]2 | B,4 [B,,B,]2 [B,,A,]2 | [E,G,]6 |] %17
V:4
 x2 | x8 | E,4 x4 | x8 | x8 | E,4 x4 | x8 | x8 | B,,6 x2 | x8 | x8 | x8 | x8 | E,4 x4 | x2 F,2 x4 | %15
 B,4 x4 | x6 |] %17

